!!!OTL: Um Home
!!!XEN: Song of Praise
!!!CNT: African -- sub-Saharan -- Xhosa
**kern
*k[b-e-]
*M4/4
*MM[Moderately slow, blues type, sad]
=1
8r
[8dd-
4dd-]
8.b-
[16b-
8b-]
8ff
=2
[1ff
=3
2ff_
8.ff]
16cc
16dd-
16cc
8b-
=4
(16b-
16g
[8f
4f)]
2r
=5
8r
8ff
8ff
8gg
8ff
8ee-
[4ff
=6
1ff_
=7
4ff_
8.ff]
16cc
8dd-
(16cc
16b-)
(8b-
8f)
=8
8r
16cc
16b-
16cc
16b-
[8b-
2b-_
=9
16b-]
16f
16f
16f
16b-
16a
8g
16f
16f
[8a-
4a-_
=10
8a-]
8f
8f
[8B-
8B-]
16f
16f
8.f
(16g
=11
8.f
16e-
8.e-
16c
8.f
16e-
4f
=12
8.cc
[16cc
8cc]
8cc
(8.b-
16g)
(8f
8d)
=13
8.g
[16g
8g]
8g
8.f
16d
4B-
=14
8.e-
[16e-
8e-]
8c
8.f
16e-
4f
!! page 39
=15
8.g
[16g
8g]
8g
(8.f
16d)
4B-
=16
8.e-
[16e-
8e-]
8e-
8.d
(16B-
4F)
=17
8.c
[16c
8c]
8B-
8.d
16c
4d
=18
1r
=19
1r
=20
8r
8aa-
8aa-
8gg
4.aa-
16ff
16ee-
=21
[1ff
4ff_
8ff]
8b-
8dd-
8cc
8b-
[(8cc
=22
8cc]
[8f
4f_
2f)]
=23
4dd-
8.b-
[16b-
8b-]
8ff
[(4ff
=24
1ff_
=25
16ff]
16cc
[8dd-
8dd-]
16cc
16b-
(16b-
16g
[8f
4f)]
=26
8r
8dd-
8dd-
16dd-
16cc
4.b-
8gg
=27
2ff
16ee-
16dd-
8cc
8b-
8g
=28
16a-
16g
8f
8r
8b-
4.dd-
8b-
=29
8cc
[8f
8f]
8b-
8a-
[8f
4f_
=30
8f]
8B-
8r
8e-
8.e-
16c
4f
=31
8.cc
[16cc
8cc]
8cc
8.b-
16g
4f
!! Repeat.
=32
8.g
[16g
8g]
8g
8.f
16d
4B-
=33
8.e-
[16e-
8e-]
8c
8.f
16e-
4f
!! page 39
=34
8.g
[16g
8g]
8g
(8.f
16d)
4B-
=35
8.e-
[16e-
8e-]
8e-
8.d
(16B-
4F)
=36
8.c
[16c
8c]
8B-
8.d
16c
4d
=37
1r
=38
1r
=39
8r
8aa-
8aa-
8gg
4.aa-
16ff
16ee-
=40
[1ff
4ff_
8ff]
8b-
8dd-
8cc
8b-
[(8cc
=41
8cc]
[8f
4f_
2f)]
=42
4dd-
8.b-
[16b-
8b-]
8ff
[(4ff
=43
1ff_
=44
16ff]
16cc
[8dd-
8dd-]
16cc
16b-
(16b-
16g
[8f
4f)]
=45
8r
8dd-
8dd-
16dd-
16cc
4.b-
8gg
=46
2ff
16ee-
16dd-
8cc
8b-
8g
=47
16a-
16g
8f
8r
8b-
4.dd-
8b-
=48
8cc
[8f
8f]
8b-
8a-
[8f
4f_
=49
8f]
8B-
8r
8e-
8.e-
16c
4f
=50
8.cc
[16cc
8cc]
8cc
8.b-
16g
4f
=51
8.g
[16g
8g]
8g
8.f
16d
4B-
=52
8.e-
[16e-
8e-]
8c
8.f
16e-
4f
==
*-
!!!OPR: Miriam Makeba, "The World of African Song"
!!!PPP: Chicago
!!!PPR: Quadrangle Press (12 East Delaware Place)
!!!PDT: 1971///
!!!PPG: 39-40
!!!ENC: David Huron
!!!EMD: 1998/9/29/ Paul von Hippel updated this file in the following ways:
!!!EMD:  (1) changed the representation of slurs from curly braces to parentheses 
!!!EMD:  (2) changed freeform comments into reference records and tandem interpretations
!!!EMD:  (3) changed final barline from triple (===) to double (==)
!!!EMD:  (4) added key signature from printed source
!!!EMD:  (5) corrected tempo marking
!!!EEV: Version 2.0
